Icons/Line/si_Dashboard.svg

<svg width="24" height="24" viewBox="0 0 24 24" fill="none" xmlns="http://www.w3.org/2000/svg">
<path d="M8.4 3H5.6C4.71634 3 4 3.71634 4 4.6V9.4C4 10.2837 4.71634 11 5.6 11H8.4C9.28366 11 10 10.2837 10 9.4V4.6C10 3.71634 9.28366 3 8.4 3Z" stroke="black" stroke-width="1.5" stroke-miterlimit="10"/>
<path d="M8.4 15H5.6C4.71634 15 4 15.7163 4 16.6V19.4C4 20.2837 4.71634 21 5.6 21H8.4C9.28366 21 10 20.2837 10 19.4V16.6C10 15.7163 9.28366 15 8.4 15Z" stroke="black" stroke-width="1.5" stroke-miterlimit="10"/>
<path d="M18.4 3H15.6C14.7163 3 14 3.71634 14 4.6V7.4C14 8.28366 14.7163 9 15.6 9H18.4C19.2837 9 20 8.28366 20 7.4V4.6C20 3.71634 19.2837 3 18.4 3Z" stroke="black" stroke-width="1.5" stroke-miterlimit="10"/>
<path d="M18.4 13H15.6C14.7163 13 14 13.7163 14 14.6V19.4C14 20.2837 14.7163 21 15.6 21H18.4C19.2837 21 20 20.2837 20 19.4V14.6C20 13.7163 19.2837 13 18.4 13Z" stroke="black" stroke-width="1.5" stroke-miterlimit="10"/>
</svg>

<svg width="24" height="24" fill="none" xmlns="http://www.w3.org/2000/svg"><path d="M8.4 3H5.6A1.6 1.6 0 0 0 4 4.6v4.8A1.6 1.6 0 0 0 5.6 11h2.8A1.6 1.6 0 0 0 10 9.4V4.6A1.6 1.6 0 0 0 8.4 3ZM8.4 15H5.6A1.6 1.6 0 0 0 4 16.6v2.8A1.6 1.6 0 0 0 5.6 21h2.8a1.6 1.6 0 0 0 1.6-1.6v-2.8A1.6 1.6 0 0 0 8.4 15ZM18.4 3h-2.8A1.6 1.6 0 0 0 14 4.6v2.8A1.6 1.6 0 0 0 15.6 9h2.8A1.6 1.6 0 0 0 20 7.4V4.6A1.6 1.6 0 0 0 18.4 3ZM18.4 13h-2.8a1.6 1.6 0 0 0-1.6 1.6v4.8a1.6 1.6 0 0 0 1.6 1.6h2.8a1.6 1.6 0 0 0 1.6-1.6v-4.8a1.6 1.6 0 0 0-1.6-1.6Z" stroke="#000" stroke-width="1.5" stroke-miterlimit="10"/></svg>
